usr/share/icons/biglinux-icons-material/symbolic/apps/sudoku-app-symbolic.svg

<svg width="16" height="16" version="1.1" xmlns="http://www.w3.org/2000/svg">
 <path d="m5.5 0.99989c-0.277 0-0.5 0.223-0.5 0.5v3.5h-3.5a0.5 0.5 0 1 0 0 1h3.5v4h-3.5a0.5 0.5 0 1 0 0 1h3.5v3.5a0.5 0.5 0 1 0 1 0v-3.5h4v3.5a0.5 0.5 0 1 0 1 0v-3.5h3.5a0.5 0.5 0 1 0 0-1h-3.5v-4h3.5a0.5 0.5 0 1 0 0-1h-3.5v-3.5a0.5 0.5 0 1 0-1 0v3.5h-4v-3.5c0-0.277-0.223-0.5-0.5-0.5zm0.5 5h4v4h-4z" fill="#363636"/>
</svg>

<svg xmlns="http://www.w3.org/2000/svg" width="16" height="16"><path fill="#dedede" d="M5.5 1c-.277 0-.5.223-.5.5V5H1.5a.5.5 0 1 0 0 1H5v4H1.5a.5.5 0 1 0 0 1H5v3.5a.5.5 0 1 0 1 0V11h4v3.5a.5.5 0 1 0 1 0V11h3.5a.5.5 0 1 0 0-1H11V6h3.5a.5.5 0 1 0 0-1H11V1.5a.5.5 0 1 0-1 0V5H6V1.5c0-.277-.223-.5-.5-.5zM6 6h4v4H6z"/></svg>
